X:189
T:Kylebrack Rambler
Z: id:dc-reel-172
M:C
L:1/8
K:D Mixolydian
=FE|DA,A,2 DA,=FA,|DA,A,2 CA,G,A,|DA,A,2 D2DE|FGAF G2FG|!
Add2 dcAB|cGAc GECE|DCA,G, A,DD2|FAGE DE:|!
FG|A2GE EDD2|d3c AGAB|c2Gc EcGc|cded cAGA|!
d2fd dAA2|^cAA2 EAA2|GEE2 CDEG|cAGE DE:|!

